usr/share/icons/biglinux-icons-material/24/actions/page-3sides.svg

<svg xmlns="http://www.w3.org/2000/svg" viewBox="0 0 24 24"><path d="M4 4v16h16V4H4zm1 1h4v14H5V5zm5 0h4v14h-4V5zm5 0h4v14h-4V5z" style="fill:currentColor;fill-opacity:1;stroke:none;color:#dedede"/></svg>

<svg xmlns="http://www.w3.org/2000/svg" viewBox="0 0 24 24">
  <defs id="defs3051">
    <style type="text/css" id="current-color-scheme">
      .ColorScheme-Text {
        color:#363636;
      }
      </style>
  </defs>
 <path style="fill:currentColor;fill-opacity:1;stroke:none" 
     d="M 4 4 L 4 20 L 10 20 L 20 20 L 20 4 L 12 4 L 4 4 z M 5 5 L 9 5 L 9 19 L 5 19 L 5 5 z M 10 5 L 14 5 L 14 19 L 10 19 L 10 5 z M 15 5 L 19 5 L 19 19 L 15 19 L 15 5 z "
     class="ColorScheme-Text"
     />
</svg>
